X:1
T:Fly Around My Pretty Little Miss
L:1/4
M:none
I:linebreak $
K:D
V:1 treble nm="Voice" snm="Voice"
V:1
 f e d B | d/e/d/B/ A A- | A A B d | [df] e/ [df] [df] |$ e e d B | d/e/d/B/ A A- | A A B/A/c/A/ | %7
 [ce] [de]/ [df]2 ::$ a g e a | b3/2 a/ b a- | a a a/g/ f | e2 e | g |$ a a f a | %14
 (6:4:3b3/2 a/ b a- | a a/a/ g f e | [df]3/2 [de]/ [df]2 :| %17
